X:1
T:Ballground Stomp
C:
L:1/8
Q:480
M:4/4
K:C
 [A/G/]A3/2 AA [A2A2] AA | [A/G/]A3/2 AA [A2A2] AA | "Am"[A2E2] [a2A2] [g2A2] [gA][gA] | \
 [e2A2] [c2E2] [d2E2] [dE]d | [e2A2E2] [aA][aA] [g2A2] [e2A2] | "G"[B2D2] [d2D2] [d2G2] [dG][dG] | \
 [A2G2] [B2G2] | "Am"[A2E2] [a2A2] [g2A2] [gA][gA] | [e2A2] [c2E2] [d2E2] [dE][dE] | \
 "G"[B2D2] [d2D2] BA G2 | "Am"GA AA [A4A4] | [A2E2] [aA][aA] [g2A2] [aA][aA] | [e2A2] [c2E2] [d2E2] [dE]d | \
 [e2A2E2] [aA][aA] [g2A2] [e2A2] | "G"[B2D2] [d2D2] [d2G2] [dG][dG] | [A2G2] [B2G2] | \
 "Am"[A2E2] [a2A2] [g2A2] [gA][aA] | [e2A2] [c2E2] [c/E/]d3/2 [dE][dE] | "G"[B2D2] dB AG AB | \
 "Am"A2 G/A3/2 A4 |: "Am"A2 [eA][eA] C2 [eA][eA] | B,2 [eA][eA] G,2 [eA][eA] | C2 [eA][eA] D2 [eA][eA] | \
 DE [eA][eA] E2 [eA][eA] | A2 [eA][eA] G2 [e2A2] | E^F ED "D"[AEC][FD] [FD][FD] | \
 [^F4D4] | "C"C2 CC "G"B,A, G,B, |1 A,2 [e3A3E3A,3][eA] [eAE][eA] :|2 A,4 [e4A4E4A,4] | \
W:Created with TablEdit http://www.tabledit.com/
